dist/img/common/logo_dev.svg

<svg width="157" height="15" viewBox="0 0 157 15" fill="none" xmlns="http://www.w3.org/2000/svg">
<path opacity="0.75" d="M6.35877 0H0V15H6.35877V0Z" fill="#434343"/>
<path opacity="0.75" d="M88.5609 0H82.2021V15H88.5609V0Z" fill="#434343"/>
<path opacity="0.75" d="M6.35877 0H0V10.7921H6.35877C9.3262 10.7921 11.7317 8.37622 11.7317 5.39603C11.7317 2.41584 9.3262 0 6.35877 0Z" fill="#434343"/>
<path opacity="0.75" d="M27.407 15H17.3184V0L27.407 15Z" fill="#434343"/>
<path opacity="0.75" d="M22.0341 0H17.3184V10.7921H22.0341C22.8255 10.7921 23.5762 10.6188 24.2529 10.3103C26.1128 9.46176 27.407 7.58137 27.407 5.39603C27.407 2.41584 25.0015 0 22.0341 0Z" fill="#434343"/>
<path opacity="0.75" d="M68.0158 0L60.1929 15H68.0158H75.839L68.0158 0Z" fill="#434343"/>
<path opacity="0.75" d="M59.9714 0L52.1484 15H59.9714H67.7944L59.9714 0Z" fill="#434343"/>
<path opacity="0.75" d="M40.8145 15C44.9389 15 48.2824 11.6421 48.2824 7.49998C48.2824 3.35785 44.9389 0 40.8145 0C36.6902 0 33.3467 3.35785 33.3467 7.49998C33.3467 11.6421 36.6902 15 40.8145 15Z" fill="#434343"/>
<path opacity="0.75" d="M148.664 0L140.841 15H148.664H156.487L148.664 0Z" fill="#434343"/>
<path opacity="0.75" d="M140.619 0L132.796 15H140.619H148.442L140.619 0Z" fill="#434343"/>
<path opacity="0.75" d="M121.727 15C125.851 15 129.195 11.6421 129.195 7.49998C129.195 3.35786 125.851 0 121.727 0C117.602 0 114.259 3.35786 114.259 7.49998C114.259 11.6421 117.602 15 121.727 15Z" fill="#434343"/>
<path opacity="0.75" d="M107.584 2.48118C106.218 0.958019 104.238 0 102.036 0C101.494 0 100.966 0.0594063 100.457 0.169505C97.0911 0.897226 94.5679 3.90217 94.5679 7.49998C94.5679 11.0978 97.0911 14.1027 100.457 14.8305C100.966 14.9406 101.494 15 102.036 15C104.238 15 106.217 14.0419 107.584 12.5188L104.688 7.49998L107.584 2.48118Z" fill="#434343"/>
<path opacity="0.75" d="M107.584 2.48118C106.218 0.958018 104.238 0 102.036 0C101.494 0 100.966 0.0594063 100.457 0.169505L104.688 7.49998L107.584 2.48118Z" fill="#434343"/>
<path opacity="0.75" d="M100.457 14.83C100.966 14.9401 101.494 14.9995 102.036 14.9995C104.238 14.9995 106.217 14.0415 107.584 12.5183L104.688 7.49951L100.457 14.83Z" fill="#434343"/>
<path opacity="0.75" d="M35.5337 12.8035C36.8851 14.1607 38.7521 15.0001 40.8143 15.0001C44.9388 15.0001 48.2822 11.6423 48.2822 7.50013C48.2822 5.42905 47.4464 3.554 46.095 2.19678L35.5337 12.8035Z" fill="#434343"/>
<path opacity="0.75" d="M116.446 12.8035C117.798 14.1607 119.665 15.0001 121.727 15.0001C125.851 15.0001 129.195 11.6423 129.195 7.50013C129.195 5.42905 128.359 3.554 127.008 2.19678L116.446 12.8035Z" fill="#434343"/>
</svg>

<svg width="157" height="15" viewBox="0 0 157 15" fill="none" xmlns="http://www.w3.org/2000/svg"><path opacity=".75" d="M6.359 0H0v15h6.359V0zM88.56 0h-6.358v15h6.359V0z" fill="#434343"/><path opacity=".75" d="M6.359 0H0v10.792h6.359c2.967 0 5.373-2.416 5.373-5.396S9.326 0 6.359 0zm21.048 15H17.318V0l10.089 15z" fill="#434343"/><path opacity=".75" d="M22.034 0h-4.716v10.792h4.716c.792 0 1.542-.173 2.219-.482a5.397 5.397 0 003.154-4.914c0-2.98-2.405-5.396-5.373-5.396zm45.982 0l-7.823 15h15.646L68.016 0z" fill="#434343"/><path opacity=".75" d="M59.971 0l-7.823 15h15.646L59.971 0zM40.815 15c4.124 0 7.467-3.358 7.467-7.5 0-4.142-3.343-7.5-7.467-7.5-4.125 0-7.468 3.358-7.468 7.5 0 4.142 3.343 7.5 7.468 7.5zM148.664 0l-7.823 15h15.646l-7.823-15z" fill="#434343"/><path opacity=".75" d="M140.619 0l-7.823 15h15.646l-7.823-15zm-18.892 15c4.124 0 7.468-3.358 7.468-7.5 0-4.142-3.344-7.5-7.468-7.5-4.125 0-7.468 3.358-7.468 7.5 0 4.142 3.343 7.5 7.468 7.5zM107.584 2.481A7.432 7.432 0 00100.457.17a7.494 7.494 0 00-5.89 7.33 7.494 7.494 0 005.89 7.33 7.434 7.434 0 007.127-2.312L104.688 7.5l2.896-5.019z" fill="#434343"/><path opacity=".75" d="M107.584 2.481A7.432 7.432 0 00100.457.17l4.231 7.33 2.896-5.019zm-7.127 12.349a7.434 7.434 0 007.127-2.312L104.688 7.5l-4.231 7.33zm-64.923-2.027A7.429 7.429 0 0040.814 15c4.125 0 7.468-3.358 7.468-7.5a7.493 7.493 0 00-2.187-5.303L35.534 12.804zm80.912 0A7.43 7.43 0 00121.727 15c4.124 0 7.468-3.358 7.468-7.5a7.494 7.494 0 00-2.187-5.303l-10.562 10.607z" fill="#434343"/></svg>
